latex_in_markdown/.watch-latex-md-images/bee7b96e0233a5c9db75ddf7bde63a40.svg

<ns0:svg xmlns:ns0="http://www.w3.org/2000/svg" xmlns:ns1="http://www.w3.org/1999/xlink" height="11.9552pt" version="1.1" viewBox="23.686 62.7646 13.6426 11.9552" width="13.6426pt" watch_lated_md:baseline="-5.329070518200751e-15" xmlns:watch_lated_md="https://github.com/Quansight/pearu-sandbox/latex_in_markdown/">
<ns0:defs>
<ns0:path d="m4.83754 -11.5171c0.0172154 -0.0688618 0.0516463 -0.172154 0.0516463 -0.258232c0 -0.172154 -0.172154 -0.172154 -0.206585 -0.172154c-0.0172154 0 -0.636971 0.0516463 -0.946849 0.0860772c-0.292662 0.0172154 -0.550894 0.0516463 -0.860772 0.0688618c-0.413171 0.0344309 -0.533679 0.0516463 -0.533679 0.361524c0 0.172154 0.172154 0.172154 0.344309 0.172154c0.877987 0 0.877987 0.154939 0.877987 0.327093c0 0.0688618 0 0.103293 -0.0860772 0.413171l-2.46181 9.84723c-0.0688618 0.258232 -0.0688618 0.292662 -0.0688618 0.395955c0 0.37874 0.292662 0.447601 0.464817 0.447601c0.482032 0 0.585325 -0.37874 0.723049 -0.912418l0.809126 -3.21929c1.23951 0.137724 1.97978 0.654187 1.97978 1.48053c0 0.103293 0 0.172154 -0.0516463 0.430386c-0.0688618 0.258232 -0.0688618 0.464817 -0.0688618 0.550894c0 0.998496 0.654187 1.6699 1.53217 1.6699c0.79191 0 1.20508 -0.723049 1.3428 -0.964065c0.361524 -0.636971 0.585325 -1.60104 0.585325 -1.6699c0 -0.0860772 -0.0688618 -0.154939 -0.172154 -0.154939c-0.154939 0 -0.172154 0.0688618 -0.241016 0.344309c-0.241016 0.895203 -0.60254 2.10028 -1.48053 2.10028c-0.344309 0 -0.56811 -0.172154 -0.56811 -0.826341c0 -0.327093 0.0688618 -0.705833 0.137724 -0.964065c0.0688618 -0.309878 0.0688618 -0.327093 0.0688618 -0.533679c0 -1.01571 -0.912418 -1.58382 -2.49624 -1.79041c0.619756 -0.37874 1.23951 -1.05014 1.48053 -1.30837c0.98128 -1.10179 1.65268 -1.65268 2.44459 -1.65268c0.395955 0 0.499248 0.103293 0.619756 0.206585c-0.636971 0.0688618 -0.877987 0.516463 -0.877987 0.860772c0 0.413171 0.327093 0.550894 0.56811 0.550894c0.464817 0 0.877987 -0.395955 0.877987 -0.946849c0 -0.499248 -0.395955 -1.01571 -1.17065 -1.01571c-0.946849 0 -1.72154 0.671402 -2.94384 2.04864c-0.172154 0.206585 -0.809126 0.860772 -1.4461 1.10179l1.77319 -7.07555z" id="g0-107" />
<ns0:path d="m2.85776 -0.705833c0 -0.430386 -0.344309 -0.705833 -0.705833 -0.705833c-0.344309 0 -0.705833 0.275447 -0.705833 0.705833s0.344309 0.705833 0.705833 0.705833c0.344309 0 0.705833 -0.275447 0.705833 -0.705833z" id="g1-46" />
</ns0:defs>
<ns0:g id="page1">
<ns0:use x="27.9837" ns1:href="#g0-107" y="74.7198" />
</ns0:g>
</ns0:svg>

<ns0:svg xmlns:ns0="http://www.w3.org/2000/svg" xmlns:ns1="http://www.w3.org/1999/xlink" height="11.9552pt" version="1.1" viewBox="23.686 62.7646 13.6426 11.9552" width="13.6426pt" watch_lated_md:baseline="-5.329070518200751e-15" xmlns:watch_lated_md="https://github.com/Quansight/pearu-sandbox/latex_in_markdown/">
<ns0:defs>
<ns0:path d="M4.83754 -11.5171C4.85475 -11.586 4.88919 -11.6893 4.88919 -11.7754C4.88919 -11.9475 4.71703 -11.9475 4.6826 -11.9475C4.66538 -11.9475 4.04563 -11.8959 3.73575 -11.8614C3.44309 -11.8442 3.18486 -11.8098 2.87498 -11.7926C2.46181 -11.7581 2.3413 -11.7409 2.3413 -11.4311C2.3413 -11.2589 2.51345 -11.2589 2.68561 -11.2589C3.5636 -11.2589 3.5636 -11.104 3.5636 -10.9318C3.5636 -10.8629 3.5636 -10.8285 3.47752 -10.5186L1.01571 -0.671402C0.946849 -0.413171 0.946849 -0.37874 0.946849 -0.275447C0.946849 0.103293 1.23951 0.172154 1.41167 0.172154C1.8937 0.172154 1.99699 -0.206585 2.13471 -0.740264L2.94384 -3.95955C4.18335 -3.82183 4.92362 -3.30536 4.92362 -2.47902C4.92362 -2.37573 4.92362 -2.30687 4.87197 -2.04864C4.80311 -1.79041 4.80311 -1.58382 4.80311 -1.49774C4.80311 -0.499248 5.45729 0.172154 6.33528 0.172154C7.12719 0.172154 7.54036 -0.550894 7.67809 -0.79191C8.03961 -1.42888 8.26341 -2.39295 8.26341 -2.46181C8.26341 -2.54789 8.19455 -2.61675 8.09126 -2.61675C7.93632 -2.61675 7.9191 -2.54789 7.85024 -2.27244C7.60922 -1.37724 7.2477 -0.172154 6.36971 -0.172154C6.0254 -0.172154 5.8016 -0.344309 5.8016 -0.998496C5.8016 -1.32559 5.87047 -1.70433 5.93933 -1.96256C6.00819 -2.27244 6.00819 -2.28965 6.00819 -2.49624C6.00819 -3.51195 5.09577 -4.08006 3.51195 -4.28664C4.13171 -4.66538 4.75146 -5.33679 4.99248 -5.59502C5.97376 -6.69681 6.64516 -7.2477 7.43707 -7.2477C7.83303 -7.2477 7.93632 -7.14441 8.05683 -7.04112C7.41986 -6.97225 7.17884 -6.52465 7.17884 -6.18034C7.17884 -5.76717 7.50593 -5.62945 7.74695 -5.62945C8.21177 -5.62945 8.62494 -6.0254 8.62494 -6.5763C8.62494 -7.07555 8.22898 -7.59201 7.45429 -7.59201C6.50744 -7.59201 5.73274 -6.92061 4.51045 -5.54337C4.33829 -5.33679 3.70132 -4.6826 3.06435 -4.44158L4.83754 -11.5171Z" id="g0-107" />
<ns0:path d="M2.85776 -0.705833C2.85776 -1.13622 2.51345 -1.41167 2.15193 -1.41167C1.80762 -1.41167 1.4461 -1.13622 1.4461 -0.705833S1.79041 0 2.15193 0C2.49624 0 2.85776 -0.275447 2.85776 -0.705833Z" id="g1-46" />
</ns0:defs>
<ns0:g id="page1">
<ns0:use x="27.9837" ns1:href="#g0-107" y="74.7198" />
</ns0:g>
</ns0:svg>
